X:159
T:Thou hast left me melancholy
T:Dh' fh\`ag thu mi fo bhr\`on
R:Slow Air
S:Simon Fraser Collection
N:No.157
O:Scottish
M:3/4
L:1/8
Q:1/4=140
K:G
F<A [GB]>[FA] [F2A2]|d>B AF [C2E2]|F<A [G3/2B3/2][F/A/] [F2A2]|
(3Adf e2 d2| F<A [G3/2B3/2][F/A/] [F2A2]|d>B AF [C2E2]|(F>A) B>A d2|
(3Adf e2 d2|f>d e>c d>A|(Bc/)d/ AF [C2E2]|f<d e>c d>B|
Ag (f/e/)(d/c/) [Fd] (f/4e/4f/4g/4)|a>f e>c d>A|Bc/d/ AF [C2E2]|
(F<A) ([G3/2B3/2][F/A/]) [F2A2]|(3A,DF [C2E2] [D2F2]||

